X: 022012
T: Baltrasna Reel
C: BB
L: 1/8
M: 4/4
R: reel
Q: 1/4=175
K: D
dB|"D"AF ~F2 "Em" EB, ~B,2|"D"A,DFA "Bm"BAFE|"D"AF ~F2 "Em" EB, ~B,2|\
"D"A,DFD "A"E2 dB|
"D"AF ~F2 "Em" EB, ~B,2|"D"A,DFA "Bm"BcdB|"D"AFDF "A7"GECE|"D"DF"A"EC "D"D2 :|
GA|"Bm"BF ~F2 "G"GBdg|"A"eage "D"fd ~d2|"Bm"BF ~F2 "G"GBdg|"A"ecAc "D"d2 FA|
"Bm"BF ~F2 "G"GBdg|"A"eage "Bm"fB ~B2|"G"dBBG "Bm"FAdB|"A7"AGEC "D"D2 :|
